X:1
T:Standin In The Need of Prayer
T:Hard trials
T:Copyright 1881 by The Riverside Press
T:Rodeheaver's Plantation Melodies
T:Rodeheaver's Plantation Melodies
Z:Rodeheaver's Plantation Melodies
%%score [ 1 2 3 4 ]
L:1/8
M:4/4
K:Eb
V:1 treble nm="Soprano" snm="S."
V:2 treble nm="Alto" snm="A."
V:3 bass nm="Tenor" snm="T."
V:4 bass nm="Bass" snm="B."
V:1
 (B>A) | G/G/G GE/E/ A3 c | BB GE/E/ F3 B | GGGG AAAc | BB A/A/F E |: BBG | E4 G G3 | A3 c cBBG | %8
w: The- *|fox- es have holes in the ground. The|birds have nests in the air. The|christ- ians have a hid- ing place. But|we poor sin- ners have none.||||
 E4 G G2 G | F3/2FAGE :| %10
w: ||
V:2
 z2 | z8 | z8 | z8 | z5 |: GGE | E4 E E3 | F3 A AGGE | E4 E E2 E | D3/2DFEE :| %10
w: |||||Now ain't them|hard tri- als,|tri- bu- la * Ain't them|hard tri- als? I'm|going to live with *|
V:3
 z2 | z8 | z8 | z8 | z5 |: EEB, | G,4 B, B,3 | B,3 E EEEB, | G,4 B, B,2 B, | B,3/2B,B,A,G, :| %10
V:4
 z2 | z8 | z8 | z8 | z5 |: E,E,E, | E,4 E, E,3 | E,3 E, E,E,E,E, | E,4 E, E,2 E, | %9
 B,,3/2B,,B,,B,,E, :| %10

